X:1
T:Title
%%score { 1 | ( 2 3 ) }
L:1/8
Q:1/4=100
M:3/4
K:Bb
V:1 treble nm="Grand Piano"
V:2 bass 
V:3 bass 
V:1
 D2 G2 [EA]2 | [DB]3 [CA] [G,B,G]2 | [B,DG]2 [C^FA]2 [DGB]2 | [EGc]3 [DGB] [D^FA]2 | %4
w: T.~E.~Perkins * *||||
 [B,G][^FA] [DGB]2 [CFA]2 | [B,G]6 | [B,D]2 [B,DG]2 A2 | B3 A G2 | F2 B2 [Gc]2 | [Fd]3 [Ec] [DB]2 | %10
w: ||||||
 [^Fd]2 [FA]2 [Ac]2 | [DGB]3 [D^FA] [DG]2 | .[CEG]2 [DB]2 [C^FA]2 | [B,G]6 |] %14
w: ||||
V:2
 [G,B,]2 [G,B,D]2 [C,G,]2 | [D,G,]3 [D,^F,] G,,2 | G,2 D,2 G,2 | C,3 G, D,2 | z C D,2 D,2 | G,,6 | %6
 G,,2 B,,2 [D,CD]2 | [G,D]3 [D,CD] [G,B,D]2 | [A,C]2 [G,B,D]2 [E,B,]2 | [F,B,]3 [F,A,] [B,,B,]2 | %10
 [D,A,]2 [D,D]2 [D,D]2 | G,,3 A,, B,,2 | z A [D,G,]2 D,2 | G,,6 |] %14
V:3
 x6 | x6 | x6 | x6 | E,2 z2 z2 | x6 | x6 | x6 | x6 | x6 | x6 | x6 | C,2 z2 z2 | x6 |] %14

